X:1
T:Gesammelte Motetten
T:Der Herr ist König
T:Johann Heinrich Rolle
T:Der Herr ist König
T:Psalm 97,1-6
T:CPDL - Creative Commons Attribution Non Commercial 3.0
T:CPDL - Creative Commons Attribution Non Commercial 3.0
T:CPDL - Creative Commons Attribution Non Commercial 3.0
T:CPDL - Creative Commons Attribution Non Commercial 3.0
T:CPDL - Creative Commons Attribution Non Commercial 3.0
T:CPDL - Creative Commons Attribution Non Commercial 3.0
T:CPDL - Creative Commons Attribution Non Commercial 3.0
T:CPDL - Creative Commons Attribution Non Commercial 3.0
T:CPDL - Creative Commons Attribution Non Commercial 3.0
T:CPDL - Creative Commons Attribution Non Commercial 3.0
T:CPDL - Creative Commons Attribution Non Commercial 3.0
T:CPDL - Creative Commons Attribution Non Commercial 3.0
T:CPDL - Creative Commons Attribution Non Commercial 3.0
T:CPDL - Creative Commons Attribution Non Commercial 3.0
T:CPDL - Creative Commons Attribution Non Commercial 3.0
T:CPDL - Creative Commons Attribution Non Commercial 3.0
T:CPDL - Creative Commons Attribution Non Commercial 3.0
T:CPDL - Creative Commons Attribution Non Commercial 3.0
C:Johann Heinrich Rolle
Z:CPDL - Creative Commons Attribution Non Commercial 3.0
%%score [ 1 2 3 4 ]
L:1/8
Q:1/4=102
M:4/4
K:A
V:1 treble nm="Sopran"
V:2 treble nm="Alt"
V:3 treble-8 nm="Tenor"
V:4 bass nm="Bass"
V:1
"^Allegro moderato" E2 | A4 c4 | e2- e>f e2 e2 | e2 d>e f2 e2 | .d2 .c2 z2 e2 | A3 c B2 (3cde | %6
w: Der|Herr ist|Kö- * * nig, des|freu- e * sich das|Erd- reich, des|freu- e sich das _ _|
 .d2 .c2 z4 | e2 (3efe e2 ee | e2 E2 z4 | e2 (3efe e2 ee | e2 E2 z2 e2 | c2 B2 z2 B2 | c4 B2 A2 | %13
w: Erd- reich!|und sei'n _ _ fröh- lich die|In- seln,|und sei'n _ _ fröh- lich die|In- seln, die|In- seln, so|viel ih- rer|
 (A4 G2) e2 | f4 e2 ^d2 | e4 z4 | z8 | z4 z2 A2 | .B2 .A2 .B2 .A2 | .d2 .c2 z4 | z8 | z4 z2 d2 | %22
w: ist,~* _ so|viel ih- rer|ist,||des|freu- e sich das|Erd- reich,||des|
 e2 d2 e2 d2 | =g2 f2 z2 B2 | c2 B2 c2 B2 | e2 d2 z4 | z8 | d2 c2 (3efe dc | d2 c2 z4 | %29
w: freu- e sich das|Erd- reich, des|freu- e sich das|Erd- reich!||und sei'n fröh- * * lich die|In- seln,|
 d2 c2 (3efe dc | d2 cd e2 dc | d2 c2 z2 B2 | (c3 d/e/) d2 c2 | !breath!B4 B4 | =g4 f2 ^A2 | %35
w: und sei'n fröh- * * lich die|In- seln, sei'n fröh- lich die|In- seln, so|viel _ _ ih- rer|ist, so|viel ih- rer|
 !fermata!B4 z4 ||[K:G]"^Solo" (E2 ^D2) E2 F2 | (G2 F2) G2 A2 | (B2 A2) (G2 F2) | G2 F2 E2 ^D2 | %40
w: ist.|Wol- * ken und|Dun- * kel ist|um _ ihn _|her, ist um ihn|
 E2 F2 G2 F2 | G4 z2"^Tutti" B2 | e>e e2 e2 ^c2 | d3 e f2 B2 | ^c6 e2 | d^c B2 d2 d2 | e6 g2 | %47
w: her, ist um ihn|her, Ge-|rech- tig- keit und Ge-|richt ist sei- nes|Stuh- les|Fes- * tung, sei- nes|Stuh- les|
 (f4- f3 e/d/) | !fermata!d4 z4 ||[M:3/4][Q:1/4=111]"^Allegro" z6 | z6 | GG GG AB | c4 z2 | %53
w: Fes- * * *|tung.|||Feu- er ge- het vor ihm|her,|
 AA AA Bc | d4 z2 | z B BB cd | e2 ee ff | ^d2 B2 z2 | z2 ff ff | (f2 g2) f2- | f2 ff ff | %61
w: Feu- er ge- het vor ihm|her|und zün- det an um-|her al- le sei- ne|Fein- de,|sei- ne Blit- ze|leuch- * ten,|_ sei- ne Blit- ze|
 f2 g2 f2- | f2 e2 e2 | e2 ^d2 A2- | A2 G2 G2 | G2 F2 z2 ||[M:2/4][Q:1/4=60]"^Grave" z3/2 B/ e>e | %67
w: leuch- ten auf|_ den Erd-|bo- den, auf|_ den Erd-|bo- den.|Der Erd- kreis|
 e>c B>A | G2 z2 | c3/2 B/4A/4 B z/ B/ | E2 !fermata!z2 ||[K:A][M:6/8][Q:1/4=80]"^Allegretto" e6 | %72
w: sie- het und er-|schrickt,|sie- het * und er-|schrickt.|Ber-|
 E3- E z"^Solo" e | e f/e/ d/c/ dBd | c2 z B2 B | A2 A ccc | d2 z z2 e | f =g/f/ e/d/ ece | %78
w: ge _ zer-|schmel- zen * wie * Wachs vor dem|Herrn, vor dem|Herrn, wie Wachs vor dem|Herrn, zer-|schmel- zen * wie * Wachs vor dem|
 d2"^Tutti" z ^d2 d | e2 z ^e2 e | fFA cAc | f3 c2 B | (B3 A>GF) | !fermata!F3 z2 F | %84
w: Herrn, vor dem|Herrn, vor dem|Herrn, vor dem Herr- scher des|gan- zen Erd-|bo- * * *|dens, zer-|
 B d/c/ B/A/ G B/A/ G/F/ | EEG BGB | e3 B2 A | (A3 G>FE) | !fermata!E3 z2 z || %89
w: schmel- zen * wie * Wachs vor * dem *|Herrn, vor dem Herr- scher des|gan- zen Erd-|bo- * * *|dens.|
[Q:1/4=98]"^Vivace" z6 | z6 | z6 | z6 | z6 | z6 | z6 | z3 efg | aga agf | gfg gfe | f2 f f3 | %100
w: |||||||Und al- le|Völ- * ker, al- * le|Völ- * ker se- * hen|sei- ne Eh-|
 e2 z z3 | z6 | z6 | z3 z2 A | eee eee | cBA eee | cBA e3 | c3 ^d3 | e3 eee | e3 ^d3 | e3 z3 | z6 | %112
w: re.|||Die|Him- mel ver- kün- di- gen|sei- * ne, sei- ne Ge-|rech- tig- keit, ver-|kün- di-|gen sei- ne Ge-|rech- tig-|keit.||
 z6 | z6 | z3 z2 A | ddd ddd | cBA ddd | cBA d3 | B3 c3 | d3 ddd | d3 c3 | d3 z3 | z3 ABc | %123
w: ||Die|Him- mel ver- kün- di- gen|sei- * ne, sei- ne Ge-|rech- tig- keit, ver-|kün- di-|gen sei- ne Ge-|rech- tig-|keit,|und al- le|
 dcd dcB | cBc cBA | B2 B B3 | A2 z z3 | z6 | z6 | z6 | z6 | z6 | z6 | z3 z2 c | fff fff | %135
w: Völ- * ker, al- * le|Völ- * ker se- * hen|sei- ne Eh-|re.|||||||Die|Him- mel ver- kün- di- gen|
 e^dc eee | =d3 d3 | c3 c3 | B3 B3 | A2 A AGA | G2 z z2 E | AAA AAA | eee eee | cBA cBA | %144
w: sei- * ne, sei- ne Ge-|rech- tig-|keit, Ge-|rech- tig-|keit, Ge- rech- * tig-|keit. Die|Him- mel ver- kün- di- gen|sei- ne Ge- rech- tig- keit,|sei- * ne, sei- ne Ge-|
 (e3 cB)A | e2 z cde | fef fed | cBc ABc | dcd dcB | AGA cde | fef f/e/dc | c3 B3 | z3 GAB | %153
w: rech- * * tig-|keit, und al- le|Völ- * ker, al- * le|Völ- * ker se- * hen|sei- * ne, sei- * ne|Eh- * re, und al- le|se- * hen sei- * * ne|Eh- re,|und al- le|
 c2 B ABc | d2 c Bcd | e3 e3 | e3 e3 | eag fed | (c3 B3) | A2 z z2 A | .B3 .c3 | .d3 .c3 | %162
w: Völ- ker, al- * le|Völ- ker se- * hen|sei- ne|Eh- re,|sei- * * ne _ _|Eh- *|re, und|al- le|Völ- ker,|
 z3 d2 e | .f3 .e3 | z6 | a2 e fed | (c3 B3) | A3 z3 | f3 d3 | (c6 | B6) | !fermata!A6 |] %172
w: al- le|Völ- ker||se- hen sei- * ne|Eh- *|re,|sei- ne|Eh-||re!|
V:2
 E2 | A4 A4 | B4 B2 B2 | A2 A2 A2 A2 | .G2 .A2 z2 A2 | A3 A G2 (3ABc | .B2 .A2 z4 | z8 | %8
w: ||||||||
 c2 B2 (3ded cB | c2 B2 z4 | c2 B2 (3ded cB | A2 G2 z2 B2 | A4 G2 F2 | (F4 E2) G2 | A4 G2 F2 | %15
w: und sei'n fröh- * * lich die|In- seln,|und sei'n fröh- * * lich die|In- seln, *||||
 G4 z4 | z8 | z4 z2 E2 | .F2 .E2 .F2 .E2 | .G2 .A2 z4 | z8 | z4 z2 A2 | B2 A2 B2 A2 | c2 d2 z2 F2 | %24
w: |||||||||
 =G2 F2 G2 F2 | ^A2 B2 z4 | z8 | F2 (3F=GF F2 FF | F2 F2 z4 | F2 (3F=GF F2 FF | F2 ^AB c2 BA | %31
w: |||||||
 B2 ^A2 z2 B2 | B4 B2 ^A2 | B4 z2 B2 | B4 B2 F2 | !fermata!F4 z4 ||[K:G] z8 | (E2 ^D2) E2 F2 | %38
w: ||||||Wol- * ken und|
 (G2 F2) G2 A2 | (B2 A2) (G2 F2) | G2 F2 E2 ^D2 | E4 z2 G2 | B>B B2 ^A2 A2 | B3 B B2 B2 | B4 ^A4 | %45
w: Dun- * kel ist|um _ ihn _|her, ist um ihn|her, *||||
 B2 B2 z4 | B2 B2 =A2 A2 | (A4- A3 G/F/) | !fermata!F4 z4 ||[M:3/4] z6 | z6 | EE EE F^G | A4 z2 | %53
w: |sei- nes Stuh- les|Fes- * * *|tung.|||Feu- er ge- het vor ihm|her,|
 FF FF GA | B4 z2 | z G GG AB | c2 GG AA | B2 B2 z2 | z2 BB BB | B2 E2 z2 | z2 BB BB | B2 B2 A2- | %62
w: Feu- er ge- het vor ihm|her|und zün- det an um-|her al- le sei- ne|Fein- de,|sei- ne Blit- ze|leuch- ten,|||
 A2 G2 G2 | G2 F2 F2- | F2 E2 G2 | G2 F2 z2 ||[M:2/4] z3/2 B/ B>B | c>A G>F | E2 z2 | A>A B z/ B/ | %70
w: ||||||||
 E2 !fermata!z2 ||[K:A][M:6/8] A6 | E3- E z c | c d/c/ B/A/ BGB | A2 z G2 G | A2 A A2 A | %76
w: |Ber-|ge _ zer-|schmel- zen * wie * Wachs vor dem|Herrn, vor dem|Herrn, wie Wachs, zer-|
 A B/A/ =G/F/ GEG | F2 B BB^A | B2 z F2 F | ^G2 z G2 G | FFA cAc | A3 G2 G | F6 | %83
w: schmel- zen * wie * Wachs vor dem|Herrn, zer- schmel- zen wie|Wachs vor dem|Herrn, * *||||
 !fermata!C3 z2 F | B d/c/ B/A/ G B/A/ G/F/ | EEG BGB | G3 F2 F | E6 | !fermata!E3 z2 z || z6 | %90
w: ||||bo-|dens.||
 z6 | z3 ABc | dcd dcB | cBc cBA | B2 B B3 | A2 z z3 | z6 | z6 | z3 z2 E | AAA AAA | GFE AAA | %101
w: |Und al- le|Völ- * ker, al- * le|Völ- * ker se- * hen|sei- ne Eh-|re.|||Die|Him- mel ver- kün- di- gen|sei- * ne, sei- ne Ge-|
 GFE A3 | F3 G3 | A3 AAA | A3 G3 | A2 z z3 | z3 EFG | AGA AGF | GFG GFE | F2 F F3 | E3 z3 | %111
w: rech- tig- keit, ver-|kün- di-|gen sei- ne Ge-|rech- tig-|keit|und al- le|Völ- * ker, al- * le|Völ- * ker se- * hen|sei- ne Eh-|re,|
 z3 ABc | dcd dcB | cBA d2 d | d3 c3 | dcB A=GF | EDC A=GF | EDC z3 | z6 | z3 z2 D | =GGG GGG | %121
w: und al- le|Völ- * ker, al- * le|Völ- * ker se- hen|sei- ne|Eh- * re, sei- * ne|Eh- * re, sei- * ne|Eh- * re.||Die|Him- mel ver- kün- di- gen|
 FED AAA | FED A3 | F3 ^G3 | A3 AAA | A3 G3 | A3 FFG | A2 =G F2 B | B3 ^A3 | B2 z z3 | z3 z2 F | %131
w: sei- * ne, sei- ne Ge-|rech- tig- keit, ver-|kün- di-|gen sei- ne Ge-|rech- *|keit, sei- ne Ge-|rech- tig- keit, Ge-|rech- tig-|keit.|Die|
 BBB BBB | AGF ccc | AGF ccc | c3 ^B3 | c2 z GGG | F3 G3 | ^E3 F3 | F3 =E3 | E2 E ^D2 D | %140
w: Him- mel ver- kün- di- gen|sei- * ne, sei- ne Ge-|rech- tig- keit, sei- ne Ge-|rech- tig-|keit, sei- ne Ge-|rech- tig-|keit, Ge-|rech- tig-|keit, Ge- rech- tig-|
 E2 z z2 E | E=DC EDC | B,EG BAG | A2 z z3 | z6 | z3 ABc | dcd dcB | AGA A2 A | A2 A dcB | %149
w: keit, ver-|kün- di- gen sei- * ne|sei- ne Ge- rech- * tig-|keit,||||||
 AGA AAA | A2 A d/c/BA | A3 G3 | z3 EFG | A2 G FGA | B2 A GAB | ABc BAG | ABc BAG | A3- A2 B | %158
w: ||||||se- * hen sei- * ne,|sei- * ne Eh- * re,|sei- * ne|
 (A3 G3) | A2 z z2 A | .G3 .A3 | .B3 .A3 | z3 A2 A | .A3 .A2 z | z6 | A2 A A2 A | (A3 G3) | A3 z3 | %168
w: Eh- *|re, *|||||||||
 A3 B3 | (A6 | G6) | !fermata!E6 |] %172
w: ||||
V:3
 c2 | e4 e4 | d4 d2 d2 | c2 B>c d2 c2 | .B2 .A2 z2 c2 | e3 e e2 e2 | .e2 .e2 z4 | z8 | %8
w: Der|Herr ist|Kö- nig, des|freu- e _ sich das|Erd- reich, des|freu- e sich das|Erd- reich!||
 e2 (3efe e2 ee | e2 E2 z4 | e2 (3efe e2 ee | e2 e2 z2 e2 | e4 e2 ^d2 | c6 B2 | c4 B2 B2 | B4 z4 | %16
w: und sei'n _ _ fröh- lich die|In- seln,|und sei'n _ _ fröh- lich die|In- seln, so|viel ih- rer|ist,~* so|viel ih- rer||
 z8 | z4 z2 c2 | .d2 .c2 .d2 .c2 | .B2 .A2 z4 | z8 | z4 z2 f2 | =g2 f2 g2 f2 | e2 d2 z2 d2 | %24
w: |des|freu- e sich das|Erd- reich,|||freu- e sich das|Erd- reich, des|
 e2 d2 e2 d2 | c2 B2 z4 | f2 (3f=gf f2 ff | f2 F2 z4 | f2 (3f=gf f2 ff | f2 F2 z4 | z2 f2 f2 ff | %31
w: freu- e sich das|Erd- reich!|und sei'n _ _ fröh- lich die|In- seln,|und sei'n _ _ fröh- lich die|In- seln,|sei'n fröh- lich die|
 f2 f2 z2 f2 | =g4 f2 e2 | d4 z2 d2 | c4 d2 c2 | !fermata!d4 z4 ||[K:G] z8 | B8 | B4 B4 | %39
w: In- seln, so|viel ih- rer|ist, so|viel ih- rer|ist.||Wol-|ken und|
 B4 B2 B2 | B4 B4 | B4 z2 e2 | e>e e2 ^c2 f2 | f3 e d2 f2 | g4 f4 | fe d2 d2 d2 | d6 ^c2 | d8 | %48
w: Dun- kel ist|um ihn|her, Ge-|rech- tig- keit und Ge-|richt ist sei- nes|Stuh- les|Fes- * tung, sei- nes|Stuh- les|Fes-|
 !fermata!A4 z4 ||[M:3/4] dd dd ef | g4 z2 | cc cc BB | A4 z2 | dd dd cc | B4 z2 | z e ee dd | %56
w: tung.|Feu- er ge- het vor ihm|her,||||||
 c2 cc cc | B2 B2 z2 | z2 ^dd dd | (^d2 e2) e2- | e2 ^dd dd | ^d2 e2 d2- | d2 e2 B2 | B2 B2 ^d2- | %64
w: |||leuch- * ten,|_ sei- ne Blit- ze|leuch- ten auf|_ den Erd-|bo- den, auf|
 d2 e2 e2 | e2 ^d2 z2 ||[M:2/4] z3/2 e/ e>e | e>e e>^d | e2 z2 | e>A B z/ B/ | e2 !fermata!z2 || %71
w: _ den Erd-|bo- den.|Der Erd- kreis|sie- het und er-|schrickt,|sie- het und er-|schrickt.|
[K:A][M:6/8] c6 | c3- c z z | z2 z z2 e | e f/e/ d/c/ dBd | c2 c eee | d2 d ddc | d2 d ccc | %78
w: Ber-|ge _|zer-|schmel- zen * wie * Wachs vor dem|Herr, zer- schmel- zen wie|Wachs, wie Wachs vor dem|Herrn, zer- schmel- zen wie|
 B2 B BBB | BBB ccc | cFA cAc | c3 c2 c | (c3- c>BA) | !fermata!A3 z2 F | B d/c/ B/A/ G B/A/ G/F/ | %85
w: Wachs, die Ber- ge zer-|schmel- zen wie Wachs vor dem|Herrn, vor dem Herr- scher des|gan- zen Erd-|bo- * * *|dens, zer-|schmel- zen * wie * Wachs vor * dem *|
 EEG BGB | B3 B2 B | (B3- B>AG) | !fermata!G3 z2 z || z6 | z6 | z6 | z6 | z3 z2 A | eee eee | %95
w: Herrn, vor dem Herr- scher des|gan- zen Erd-|bo- * * *|dens.|||||Die|Him- mel ver- kün- di- gen|
 cBA eee | cBA e3 | c3 ^d3 | e3 eee | e3 ^d3 | e2 z z3 | z3 ABc | dcd dcB | cBc cBA | B2 B B3 | %105
w: sei- * ne, sei- ne Ge-|rech- tig- keit, ver-|kün- di-|gen sei- ne Ge-|rech- tig-|keit,|und al- le|Völ- * ker, al- * le|Völ- * ker se- * hen|sei- ne Eh-|
 A2 A G2 G | A2 A GAB | A3 B3 | e2 e c2 c | c2 c B3 | B3 ABc | d3 cde | f3 e3 | z3 def | =gfg gfe | %115
w: re, und al- le|Völ- ker se- * hen|sei- ne|Eh- re, se- hen|sei- ne Eh-|re, sei- * ne|Eh- re, al- le|Völ- ker,|und al- le|Völ- * ker sei- * ne|
 d3 d z z | z2 e fed | AAA f3 | d3 e3 | A3 def | =g3 e3 | d2 d cBA | d2 d cBA | B3 e3 | A3 ABc | %125
w: Eh- re.|Die Him- mel ver-|kün- di- gen, ver-|kün- di-|gen sei- ne Ge-|rech- tig-|keit, ver- kün- di- gen|sei- ne, sei- ne Ge-|rech- tig-|keit, sei- ne Ge-|
 d3 e3 | e2 c d2 e | e2 z z2 B | eee eee | dcB fff | dcB fff | f3 ^e3 | f3 ^e^dc | f3 =e3 | %134
w: rech- tig-|keit, Ge- rech- tig-|keit. Die|Him- mel ver- kün- di- gen|sei- * ne, sei- ne Ge-|rech- tig- keit, sei- ne Ge-|rech- tig-|keit, sei- ne Ge-|rech- *|
 ^d3 G3 | c2 z z3 | z6 | z3 ccc | ^d2 d e2 z | z3 z2 A | eee eee | cBA cBA | G2 B dcB | ABc edc | %144
w: * tig-|keit,||sei- ne Ge-|rech- tig- keit.|Die|Him- mel ver- kün- di- gen|sei- ne Ge- rech- * tig-|keit, ver- kün- di- gen|sei- * ne, sei- ne Ge-|
 BAG edc | BAG z3 | z6 | z3 cde | fef fed | cBc edc | dcd f2 f | e3 e3 | z6 | cde f2 e | def e2 e | %155
w: rech- tig- keit, sei- ne Ge-|rech- tig- keit,||und al- le|Völ- * ker, al- * le|Völ- * ker, und al- le|se- * hen sei- ne|Eh- re,||und al- le Völ- ker,|al- * le Völ- ker|
 e2 e e2 e | e2 e e2 e | (e3 de)f | (e3 d3) | c2 z z2 e | .e3 .e3 | .e3 .e3 | z3 d2 c | .d3 .e2 z | %164
w: se- hen sei- ne,|sei- ne Eh- re,|sei- * * ne|Eh- *|re, und|al- le|Völ- ker,|al- le|Völ- ker|
 z6 | e2 e def | (e3 d3) | c3 z3 | d3 f3 | (e6 | d6) | !fermata!c6 |] %172
w: |se- hen sei- * ne|Eh- *|re,|sei- ne|Eh-||re!|
V:4
 A,2 | C4 A,4 | G,4 G,2 G,2 | A,2 A,2 A,2 A,2 | .E,2 .A,,2 z2 A,2 | C3 A, E,2 A,2 | .E,2 .A,,2 z4 | %7
w: |||||||
 z8 | A,2 G,2 (3B,CB, A,G, | A,2 G,2 z4 | A,2 G,2 (3B,CB, A,G, | A,2 E,2 z2 G,2 | A,4 B,2 B,2 | %13
w: ||||||
"^* rev. Übersetzung: so viel ihrer sind" C6 B,2 | A,4 B,2 B,2 | E,4 z2 E,2 | A,4 A,4 | %17
w: ||ist, der|Herr ist|
 A,2- A,>B, A,2 z2 | z8 | z4 z2 A,2 | D4 D4 | D2- D>E D2 z2 | z8 | z8 | z4 z2 B,2 | F,2 B,,2 z4 | %26
w: Kö- * * nig,||der|Herr ist|Kö- * * nig,|||das|Erd- reich!|
 z8 | B,2 ^A,2 (3B,CB, B,A, | B,2 ^A,2 z4 | B,2 ^A,2 (3B,CB, B,A, | B,2 F,F, F,2 F,F, | %31
w: |und sei'n fröh- * * lich die|In- seln,|und sei'n fröh- * * lich die|In- seln, sei'n fröh- lich die|
 B,2 F,2 z2 D,2 | E,4 F,2 F,2 | =G,4 z2 G,2 | E,4 F,2 F,2 | !fermata!B,,4 z4 ||[K:G] z8 | E,8 | %38
w: In- seln, so|viel ih- rer|ist, so|viel ih- rer|ist.|||
 E,4 E,4 | E,4 E,2 E,2 | E,4 E,4 | E,4 z2 E,2 | G,>G, G,2 F,2 F,2 | B,3 ^C D2 D,2 | E,4 F,4 | %45
w: |||||||
 B,2 B,,2 z4 | G,2 E,2 A,2 A,2 | D4 D,4- | !fermata!D,4 z4 ||[M:3/4] z6 | G,G, G,G, A,B, | C4 z2 | %52
w: |sei- nes Stuh- les|Fes- tung.|_||Feu- er ge- het vor ihm|her,|
 A,A, A,A, B,C | D4 z2 | z B, B,B, CD | E2 EE DD | CB, C2 z2 | z2 B,B, B,B, | B,2 B,,2 z2 | %59
w: Feu- er ge- het vor ihm|her,|und zün- det an um-|her al- le sei- ne|Fein- * de,|sei- ne Blit- ze|leuch- ten,|
 z2 ^A,A, A,A, | B,2 B,,2 B,2- | B,2 B,2 B,2 | B,6 | B,6 | B,2 B,2 B,2 | B,2 B,,2 z2 || %66
w: sei- ne Blit- ze|leuch- ten auf|_ den Erd-|bo-|den,|auf den Erd-|bo- den.|
[M:2/4] z3/2 G,/ G,>G, | A,>A, B,>B, | C2 z2 | A,>A, B, z/ B,/ | E,2 !fermata!z2 || %71
w: |||||
[K:A][M:6/8] A,6 | A,,3- A,, z A, | E,3 E,2 E, | E,2 z z2 E, | A, B,/A,/ =G,/F,/ G,E,G, | %76
w: Ber-|ge _ zer-|schmel- zen wie|Wachs, zer-|schmel- zen * wie * Wachs vor dem|
 F,2 B, E,A,A, | D,2 z z2"^Tutti" F, | B, C/B,/ A,/^G,/ A,F,A, | G,E,G, B,G,B, | A,F,A, CA,C | %81
w: Herrn, wie Wachs vor dem|Herrn, zer-|schmel- zen * wie * Wachs vor dem|Herrn, _ wie Wachs vor dem|Herrn, * * * * *|
 F,3 ^E,2 E, | F,6 | !fermata!F,3 z2 F, | B, D/C/ B,/A,/ G, B,/A,/ G,/F,/ | E,E,G, B,G,B, | %86
w: |||||
 E,3 ^D,2 D, | E,6 | !fermata!E,3 z2 E, || A,A,A, A,A,A, | G,F,E, A,A,A, | G,F,E, A,3 | F,3 G,3 | %93
w: |bo-|dens. Die|Him- mel ver- kün- di- gen|sei- * ne, sei- ne Ge-|rech- tig- keit, ver-|kün- di-|
 A,3 A,A,A, | A,3 G,3 | A,3 G,F,E, | A,3 G,F,E, | F,3 B,3 | E,2 z z3 | z6 | z2 E, CB,A, | %101
w: gen sei- ne Ge-|rech- tig-|keit, sei- ne Ge-|rech- * * *|* tig-|keit,||ver- kün- di- gen|
 B,2 E, CB,A, | B,3 E,3 | A,2 A, F,2 F, | E,3- E,2 z | z6 | z6 | z6 | z3 z2 E, | A,A,A, A,A,A, | %110
w: sei- ne, sei- ne Ge-|rech- tig-|keit, Ge- rech- tig-|keit. _||||Die|Him- mel ver- kün- di- gen|
 G,F,E, A,A,A, | G,F,E, A,3 | F,3 G,3 | A,3 B,B,B, | E,2 E, A,2 A, | B,A,=G, F,E,D, | %116
w: sei- * ne, sei- ne Ge-|rech- tig- keit, ver-|kün- di-|gen sei- ne Ge-|rech- tig- keit, ver-|kün- di- gen sei- ne Ge-|
 A,2 A, A,2 z | z3 D,E,F, | =G,F,G, G,F,E, | F,E,F, F,E,D, | E,2 E, A,3 | D,2 z z3 | z6 | z6 | %124
w: rech- tig- keit,|und al- le|Völ- * ker, al- * le|Völ- * ker se- * hen|sei- ne Eh-|re.|||
 z3 z2 A, | DDD DDD | CB,A, DDD | CB,A, DDD | C3 F,3 | B,3 ^A,G,F, | B,3 =A,3 | G,3 C,3 | F,3 z3 | %133
w: Die|Him- mel ver- kün- di- gen|sei- * ne, sei- ne Ge-|rech- tig- keit, sei- ne Ge-|rech- tig-|keit, sei- ne Ge-|rech- *|* tig-|keit.|
 z6 | z3 z2 G, | CCC CCC | CB,^A, B,B,B, | B,=A,G, A,A,A, | A,G,F, G,G,G, | F,E,F, F,3 | E,3 E,3 | %141
w: |Die|Him- mel ver- kün- di- gen|sei- * ne, sei- ne Ge-|rech- tig- keit, sei- ne Ge-|rech- tig- keit, sei- ne Ge-|rech- * * tig-|keit, Ge-|
 E,3 E,3 | E,2 z z2 E, | A,A,A, A,A,A, | G,F,E, A,A,A, | G,F,E, A,3 | F,3 G,3 | A,3 A,3 | %148
w: rech- tig-|keit. Die|Him- mel ver- kün- di- gen|sei- * ne, sei- ne Ge-|rech- tig- keit, und|al- le,|al- le|
 (A,3 G,3) | A,2 z A,B,C | DCD D,2 ^D, | E,3 E,3 | z6 | A,B,C D2 C | B,CD E2 D | CB,A, G,F,E, | %156
w: Völ- *|ker, * * *|||||||
 CB,A, G,F,E, | C,3 D,3 | E,6 | A,2 z z2 C | .D3 .C3 | .G,3 .A,3 | z3 B,2 C | .D3 .C3 | z6 | %165
w: |sei- ne|Eh-|re, *||||||
 C2 C D2 D, | E,6 | F,3 z3 | D3 D,3 | E,6- | E,6 | !fermata!A,,6 |] %172
w: |||||||

